dist/img/sftg.svg

<svg width="24" height="24" viewBox="0 0 24 24" fill="none" xmlns="http://www.w3.org/2000/svg">
<path fill-rule="evenodd" clip-rule="evenodd" d="M12 22.1133C17.5228 22.1133 22 17.6108 22 12.0566C22 6.50251 17.5228 2 12 2C6.47715 2 2 6.50251 2 12.0566C2 17.6108 6.47715 22.1133 12 22.1133ZM7.45288 12.2711L9.59241 12.9794C9.62847 12.9857 9.6655 12.9834 9.70053 12.9727L9.70185 12.9718C10.1951 12.6554 14.5973 9.83108 14.8514 9.73608C14.8915 9.72376 14.9213 9.73764 14.9134 9.76577C14.8115 10.1289 10.9814 13.5876 10.9814 13.5876C10.9814 13.5876 10.9442 13.6307 10.951 13.6655C10.9525 13.6789 10.9569 13.6918 10.9638 13.7033C10.9707 13.7149 10.9799 13.7248 10.9908 13.7323C11.4769 14.0626 13.6765 15.5644 14.3129 16.1206C14.3701 16.177 14.4379 16.2211 14.5123 16.2504C14.5866 16.2796 14.666 16.2933 14.7457 16.2907C15.07 16.2783 15.1605 15.9164 15.1605 15.9164C15.1605 15.9164 16.6734 9.73163 16.7239 8.90294C16.7259 8.87153 16.7281 8.84453 16.7301 8.81999C16.7332 8.78115 16.7359 8.74847 16.7363 8.71427C16.7389 8.64975 16.7327 8.58517 16.7177 8.5224C16.7101 8.48687 16.6934 8.45402 16.6692 8.42722C16.645 8.40042 16.6142 8.38063 16.58 8.36988C16.4418 8.31651 16.2074 8.39675 16.2074 8.39675C16.2074 8.39675 7.907 11.4277 7.43294 11.7635C7.33066 11.8355 7.29647 11.8775 7.27952 11.9267C7.19718 12.1657 7.45288 12.2711 7.45288 12.2711Z" fill="white"/>
</svg>

<svg width="24" height="24" fill="none" xmlns="http://www.w3.org/2000/svg"><path fill-rule="evenodd" clip-rule="evenodd" d="M12 22.113c5.523 0 10-4.502 10-10.056C22 6.503 17.523 2 12 2S2 6.503 2 12.057s4.477 10.056 10 10.056zm-4.547-9.842l2.14.708a.233.233 0 00.108-.006v-.001c.494-.317 4.896-3.14 5.15-3.236.04-.012.07.002.062.03-.101.363-3.932 3.822-3.932 3.822s-.037.043-.03.078a.094.094 0 00.04.066c.486.33 2.686 1.832 3.322 2.389a.594.594 0 00.433.17c.324-.013.415-.375.415-.375s1.512-6.184 1.563-7.013l.006-.083c.003-.039.006-.072.006-.106a.704.704 0 00-.018-.192.206.206 0 00-.138-.152c-.138-.053-.373.027-.373.027s-8.3 3.03-8.774 3.367c-.102.072-.137.114-.153.163-.083.239.173.344.173.344z" fill="#fff"/></svg>
